fileicons/icons/autohotkey.svg

<?xml version="1.0" encoding="UTF-8" standalone="no"?>
<svg
   xmlns:dc="http://purl.org/dc/elements/1.1/"
   xmlns:cc="http://creativecommons.org/ns#"
   xmlns:rdf="http://www.w3.org/1999/02/22-rdf-syntax-ns#"
   xmlns:svg="http://www.w3.org/2000/svg"
   xmlns="http://www.w3.org/2000/svg"
   xmlns:sodipodi="http://sodipodi.sourceforge.net/DTD/sodipodi-0.dtd"
   xmlns:inkscape="http://www.inkscape.org/namespaces/inkscape"
   version="1.1"
   width="24"
   height="24"
   viewBox="0 0 24 24"
   id="svg2"
   inkscape:version="0.91 r13725"
   sodipodi:docname="autohotkey.svg">
  <metadata
     id="metadata10">
    <rdf:RDF>
      <cc:Work
         rdf:about="">
        <dc:format>image/svg+xml</dc:format>
        <dc:type
           rdf:resource="http://purl.org/dc/dcmitype/StillImage" />
        <dc:title></dc:title>
      </cc:Work>
    </rdf:RDF>
  </metadata>
  <defs
     id="defs8" />
  <sodipodi:namedview
     pagecolor="#ffffff"
     bordercolor="#666666"
     borderopacity="1"
     objecttolerance="10"
     gridtolerance="10"
     guidetolerance="10"
     inkscape:pageopacity="0"
     inkscape:pageshadow="2"
     inkscape:window-width="1366"
     inkscape:window-height="705"
     id="namedview6"
     showgrid="false"
     inkscape:zoom="13.906433"
     inkscape:cx="9.3323314"
     inkscape:cy="6.0297729"
     inkscape:window-x="-8"
     inkscape:window-y="-8"
     inkscape:window-maximized="1"
     inkscape:current-layer="svg2" />
  <path
     style="fill:#4caf50;fill-opacity:1"
     d="M 5 3 C 3.89 3 3 3.89 3 5 L 3 19 A 2 2 0 0 0 5 21 L 19 21 A 2 2 0 0 0 21 19 L 21 5 C 21 3.89 20.1 3 19 3 L 5 3 z M 8.6679688 6.4472656 C 8.9275716 6.4472656 9.145752 6.5330404 9.3203125 6.703125 C 9.494873 6.8732096 9.5820312 7.0819499 9.5820312 7.328125 C 9.5820312 7.6682943 9.5678711 8.1804199 9.5410156 8.8652344 C 9.5186361 9.5455729 9.5078125 10.054362 9.5078125 10.394531 C 9.5078125 10.506429 9.4922689 10.721273 9.4609375 11.039062 C 9.434082 11.334473 9.4232585 11.562093 9.4277344 11.71875 L 12.005859 11.234375 C 13.012939 11.055339 13.879801 10.952637 14.609375 10.925781 C 14.627279 10.625895 14.656982 9.8212077 14.697266 8.5097656 C 14.706217 8.1651204 14.812256 7.7679036 15.013672 7.3203125 C 15.264323 6.7697754 15.547445 6.4941406 15.865234 6.4941406 C 16.102458 6.4941406 16.312581 6.5738118 16.496094 6.7304688 C 16.693034 6.9005534 16.791016 7.1120605 16.791016 7.3671875 C 16.791016 7.4343262 16.783529 7.5012207 16.765625 7.5683594 C 16.676107 7.8951009 16.630859 8.1801758 16.630859 8.421875 C 16.630859 8.5472005 16.616699 8.7417806 16.589844 9.0058594 C 16.567464 9.2654622 16.556641 9.4586589 16.556641 9.5839844 C 16.556641 10.009196 16.534993 10.639567 16.490234 11.476562 C 16.445475 12.313558 16.421875 12.943929 16.421875 13.369141 C 16.421875 13.695882 16.446859 14.184977 16.496094 14.833984 C 16.545329 15.482992 16.570312 15.970133 16.570312 16.296875 C 16.570312 16.54305 16.483154 16.75179 16.308594 16.921875 C 16.134033 17.09196 15.917806 17.175781 15.658203 17.175781 C 15.394124 17.175781 15.16512 17.09196 14.972656 16.921875 C 14.780192 16.756266 14.683594 16.552246 14.683594 16.310547 C 14.683594 15.983805 14.66805 15.493327 14.636719 14.839844 C 14.609863 14.186361 14.595703 13.695882 14.595703 13.369141 C 14.595703 13.114014 14.600423 12.888346 14.609375 12.691406 C 13.906657 12.722738 13.039795 12.833496 12.005859 13.021484 C 11.146484 13.178141 10.287109 13.336914 9.4277344 13.498047 C 9.4187826 13.802409 9.3857422 14.309814 9.3320312 15.021484 C 9.2872721 15.648112 9.265625 16.160238 9.265625 16.558594 C 9.265625 16.804769 9.1784668 17.013509 9.0039062 17.183594 C 8.8293457 17.353678 8.6131185 17.4375 8.3535156 17.4375 C 8.0939128 17.4375 7.8757324 17.353678 7.7011719 17.183594 C 7.5266113 17.013509 7.4394531 16.804769 7.4394531 16.558594 C 7.4394531 16.106527 7.4766439 15.430908 7.5527344 14.53125 C 7.6333008 13.631592 7.6738281 12.955973 7.6738281 12.503906 C 7.6738281 11.93099 7.6879883 11.068278 7.7148438 9.9179688 C 7.7416992 8.7631836 7.7558594 7.9010417 7.7558594 7.328125 C 7.7558594 7.0819499 7.8430176 6.8732096 8.0175781 6.703125 C 8.1921387 6.5330404 8.4083659 6.4472656 8.6679688 6.4472656 z "
     id="path4" />
</svg>

<svg xmlns="http://www.w3.org/2000/svg" width="24" height="24" viewBox="0 0 24 24"><path d="M5 3c-1.11 0-2 .89-2 2v14a2 2 0 0 0 2 2h14a2 2 0 0 0 2-2V5a2 2 0 0 0-2-2H5zm3.668 3.447a.9.9 0 0 1 .652.256.84.84 0 0 1 .262.625c0 .34-.014.852-.041 1.537-.022.68-.033 1.19-.033 1.53 0 .111-.016.326-.047.644a6.149 6.149 0 0 0-.033.68l2.578-.485c1.007-.179 1.874-.281 2.603-.308.018-.3.048-1.105.088-2.416.01-.345.115-.742.317-1.19.25-.55.533-.826.851-.826.237 0 .448.08.631.236.197.17.295.382.295.637a.775.775 0 0 1-.025.201c-.09.327-.135.612-.135.854 0 .125-.014.32-.041.584-.023.26-.033.453-.033.578 0 .425-.022 1.056-.067 1.893a38.963 38.963 0 0 0-.068 1.892c0 .327.025.816.074 1.465.05.649.074 1.136.074 1.463a.84.84 0 0 1-.261.625.893.893 0 0 1-.65.254 1 1 0 0 1-.686-.254.777.777 0 0 1-.29-.611c0-.327-.015-.818-.046-1.471a39.552 39.552 0 0 1-.041-1.47c0-.256.004-.482.013-.679-.702.032-1.57.142-2.603.33-.86.157-1.719.316-2.578.477-.01.304-.042.812-.096 1.523a22.354 22.354 0 0 0-.066 1.538.84.84 0 0 1-.262.625.893.893 0 0 1-.65.253.898.898 0 0 1-.653-.253.84.84 0 0 1-.262-.625c0-.452.038-1.128.114-2.028.08-.9.12-1.575.12-2.027 0-.573.015-1.436.042-2.586.027-1.155.04-2.017.04-2.59a.84.84 0 0 1 .263-.625.895.895 0 0 1 .65-.256z" fill="#4caf50"/></svg>
